!!!!SEGMENT: pl-wn--mus-iii-94-651--003_zelenski-wladyslaw--trzy-piesni-op-19-lzy.krn
!!!cenid: 18xx:3690
!!!COM: Żeleński, Władysław
!!!COM-rismID: pe41024455
!!!CDT: 1837/07/06-1921/01/23
!!!CNT: Polish
!!!GTL: Trzy pieśni op. 19
!!!OTL: Łzy
!!!PDT:
!!!AGN:
!!!SMS-siglum: PL-Wn
!!!SMS-shelfmark: Mus.III.94.651
!!!SMS-shelfwork: 003 G
!!!SMS-variant:
!!!SMS-altvar:
!!!NIFC-rismSourceID:
!!!NIFC-islandoraID:
!!!URL-pdf-islandora:
!!!URL-scan: https://polona.pl/item/trzy-piesni-z-towarzyszeniem-fortepianu-dzielo-19,NzQ3Nzg5MjA/0 @EN{Scan on Polona} @PL{Skany w portalu Polona}
!!!ONB-nifc:
!!!AIN: 2 piano 1 vox
!!!key: g#
**kern	**kern	**dynam	**kern	**text	**text	**dynam
*part3	*part2	*part2	*part1	*part1	*part1	*part1
*staff3	*staff2	*	*staff1	*staff1	*staff1	*
*I"FORTEPIAN.	*I"FORTEPIAN.	*	*I"ŚPIEW.	*	*	*
*I'pf	*I'pf	*	*I'V	*	*	*
*ICklav	*ICklav	*	*ICvox	*	*	*
*Ipiano	*Ipiano	*	*Ivox	*	*	*
*clefF4	*clefG2	*	*clefG2	*	*	*
*k[f#c#g#d#a#]	*k[f#c#g#d#a#]	*	*k[f#c#g#d#a#]	*	*	*
*g#:	*g#:	*	*g#:	*	*	*
*M4/4	*M4/4	*	*M4/4	*	*	*
*met(c)	*met(c)	*	*met(c)	*	*	*
=1	=1	=1	=1	=1	=1	=1
*^	*	*	*	*	*	*
*xywh-8:285,973,2487,462	*xywh-8:285,973,2487,462	*xywh-8:285,973,2487,462	*	*xywh-8:310,322,2508,678	*	*	*
!	!	!	!	!LO:TX:a:B:t=Andante non troppo lento.	!	!	!
*	*	*Xtuplet	*	*	*	*	*
!	!	!	!LO:DY:b	!	!	!	!
[2D#/	1GG#	(24d#/LL	pp	1r	.	.	.
.	.	24B/	.	.	.	.	.
.	.	24G#/JJ	.	.	.	.	.
.	.	24d#/LL	.	.	.	.	.
.	.	24B/	.	.	.	.	.
.	.	24G#/JJ	.	.	.	.	.
.	.	24d#/LL	.	.	.	.	.
.	.	24B/	.	.	.	.	.
.	.	24G#/JJ	.	.	.	.	.
.	.	24d#/LL	.	.	.	.	.
.	.	24B/	.	.	.	.	.
.	.	24G#/JJ)	.	.	.	.	.
!LO:TX:b:i:t=più marc.	!	!	!	!	!	!	!
8D#/L]	.	2c#/ 2d#	.	.	.	.	.
(<8D#/	.	.	.	.	.	.	.
8qF#/	.	.	.	.	.	.	.
8E/	.	.	.	.	.	.	.
8D#/J)	.	.	.	.	.	.	.
=2!|:	=2!|:	=2!|:	=2!|:	=2!|:	=2!|:	=2!|:	=2!|:
!	!	!	!	!LO:TX:a:i:t=suonore e con duolo	!	!	!
[2D#/	1GG#	(24d#/LL	.	[2g#/	Gdzie	Gdzie	.
.	.	24B/	.	.	.	.	.
.	.	24G#/JJ	.	.	.	.	.
.	.	24d#/LL	.	.	.	.	.
.	.	24B/	.	.	.	.	.
.	.	24G#/JJ	.	.	.	.	.
.	.	24d#/LL	.	.	.	.	.
.	.	24B/	.	.	.	.	.
.	.	24G#/JJ	.	.	.	.	.
.	.	24d#/LL	.	.	.	.	.
.	.	24B/	.	.	.	.	.
.	.	24G#/JJ)	.	.	.	.	.
8D#/L]	.	2c#/ 2d#	.	8g#/]	.	.	.
(<8D#/	.	.	.	8f##X/	ta	to	.
8qF#/	.	.	.	.	.	.	.
8E/	.	.	.	8.b/	chat-	źró-	.
8D#/J)	.	.	.	.	.	.	.
.	.	.	.	16a#/	-ka	-dło	.
!!LO:LB:g=original	!	!	!	!	!	!	!
=3	=3	=3	=3	=3	=3	=3	=3
*	*	*^	*	*	*	*	*
*xywh-8:215,1673,2539,453	*xywh-8:215,1673,2539,453	*xywh-8:215,1673,2539,453	*xywh-8:215,1673,2539,453	*	*xywh-8:219,1387,2557,337	*	*	*
[2D#/	4GG#\	(24d#/LL	4.ryy	.	4.a#/	mchem	ży-	.
.	.	24B/	.	.	.	.	.	.
.	.	24G#/JJ	.	.	.	.	.	.
.	.	24d#/LL	.	.	.	.	.	.
.	.	24B/	.	.	.	.	.	.
.	.	24G#/JJ	.	.	.	.	.	.
.	4AA#\	24d#/LL	.	.	.	.	.	.
.	.	24B/	.	.	.	.	.	.
.	.	24G#/JJ	.	.	.	.	.	.
.	.	24d#/LL	24ryy	.	8g#/	ob-	-wej	.
.	.	24B/	[>12B\	.	.	.	.	.
.	.	[<24G#/JJ)	.	.	.	.	.	.
8D#/L]	2BB\	2G#/] 2B] 2d#	2ryy	.	4dd#\	-ro-	wo-	.
(<8D#/	.	.	.	.	.	.	.	.
8qF#/	.	.	.	.	.	.	.	.
8E/	.	.	.	.	4dd#\	-sła,	-dy	.
8D#/J)	.	.	.	.	.	.	.	.
*v	*v	*	*	*	*	*	*	*
=4	=4	=4	=4	=4	=4	=4	=4
[2C#/	(24e/LL	4.ryy	.	8dd#\	co	z pod	.
.	24A#/	.	.	.	.	.	.
.	24G#/JJ	.	.	.	.	.	.
.	24e/LL	.	.	8ee\	mnie	zie-	.
.	24A#/	.	.	.	.	.	.
.	24G#/JJ	.	.	.	.	.	.
.	24e/LL	.	.	8cc#\	wy-	-mi	.
.	24A#/	.	.	.	.	.	.
.	24G#/JJ	.	.	.	.	.	.
.	24e/LL	24ryy	.	8b\	-cho-	bi-	.
.	24A#/	[>12A#\	.	.	.	.	.
.	[<24G#/JJ)	.	.	.	.	.	.
8C#/L]	2G#/] 2A#] 2e	2ryy	.	(4..a#/	-wa-	-ją-	.
(8C#/	.	.	.	.	.	.	.
8qE/	.	.	.	.	.	.	.
8D#/	.	.	.	.	.	.	.
8C#/J)	.	.	.	.	.	.	.
.	.	.	.	16g#/)	.	.	.
=5	=5	=5	=5	=5	=5	=5	=5
[2D#\	(24d#/LL	4.ryy	.	2f##X/	-ła?	-ce?	.
.	24A#/	.	.	.	.	.	.
.	24F##X/JJ	.	.	.	.	.	.
.	24d#/LL	.	.	.	.	.	.
.	24A#/	.	.	.	.	.	.
.	24F##/JJ	.	.	.	.	.	.
.	24d#/LL	.	.	.	.	.	.
.	24A#/	.	.	.	.	.	.
.	24F##/JJ	.	.	.	.	.	.
.	24d#/LL	24ryy	.	.	.	.	.
.	24A#/	[>12B\	.	.	.	.	.
.	[<24F##/JJ)	.	.	.	.	.	.
8D#/L]	2F##/] 2B] 2d#	2ryy	.	2r	.	.	.
(8DD#/	.	.	.	.	.	.	.
8qFF#/	.	.	.	.	.	.	.
8EE/	.	.	.	.	.	.	.
8DD#/J)	.	.	.	.	.	.	.
*	*v	*v	*	*	*	*	*
!!LO:LB:g=original	!	!	!	!	!	!
=6	=6	=6	=6	=6	=6	=6
*^	*	*	*	*	*	*
*xywh-8:228,2409,2560,410	*xywh-8:228,2409,2560,410	*xywh-8:228,2409,2560,410	*	*xywh-8:234,2092,2539,334	*	*	*
[2D#/	1GG#	(24d#/LL	.	[2g#/	Gdzie	Gdzie	.
.	.	24B/	.	.	.	.	.
.	.	24G#/JJ	.	.	.	.	.
.	.	24d#/LL	.	.	.	.	.
.	.	24B/	.	.	.	.	.
.	.	24G#/JJ	.	.	.	.	.
.	.	24d#/LL	.	.	.	.	.
.	.	24B/	.	.	.	.	.
.	.	24G#/JJ	.	.	.	.	.
.	.	24d#/LL	.	.	.	.	.
.	.	24B/	.	.	.	.	.
.	.	24G#/JJ)	.	.	.	.	.
8D#/L]	.	2c#/ 2d#	.	8g#/]	.	.	.
(<8D#/	.	.	.	8f##X/	ja-	te	.
8qF#/	.	.	.	.	.	.	.
8E/	.	.	.	8.b/	-błon-	my-	.
8D#/J)	.	.	.	.	.	.	.
.	.	.	.	16a#/	-ka	-śli	.
=7	=7	=7	=7	=7	=7	=7	=7
*	*	*^	*	*	*	*	*
*	*	*	*xywh-8:228,2409,2560,410	*	*	*	*	*
[2D#/	4GG#\	(24d#/LL	4.ryy	.	4.a#/	ta	dziew-	.
.	.	24B/	.	.	.	.	.	.
.	.	24G#/JJ	.	.	.	.	.	.
.	.	24d#/LL	.	.	.	.	.	.
.	.	24B/	.	.	.	.	.	.
.	.	24G#/JJ	.	.	.	.	.	.
.	4AA#\	24d#/LL	.	.	.	.	.	.
.	.	24B/	.	.	.	.	.	.
.	.	24G#/JJ	.	.	.	.	.	.
.	.	24d#/LL	24ryy	.	8g#/	wy-	-ki	.
.	.	24B/	[>12B\	.	.	.	.	.
.	.	[<24G#/JJ)	.	.	.	.	.	.
8D#/L]	2BB\	2G#/] 2B] 2d#	2ryy	.	4dd#\	-nios-	mło-	.
(<8D#/	.	.	.	.	.	.	.	.
8qF#/	.	.	.	.	.	.	.	.
8E/	.	.	.	.	4dd#\	-ła,	-dej	.
8D#/J)	.	.	.	.	.	.	.	.
*v	*v	*	*	*	*	*	*	*
*	*v	*v	*	*	*	*	*
=8	=8	=8	=8	=8	=8	=8
4C#/	(24e/LL	.	8dd#\	co	jak	.
.	24A#/	.	.	.	.	.
.	24G#/JJ	.	.	.	.	.
.	24e/LL	.	8ee\	w o-	kwiat-	.
.	24A#/	.	.	.	.	.
.	24G#/JJ	.	.	.	.	.
4C##X/	24e#X/LL	.	8f##X/	-gro-	-ki	.
.	24A#/	.	.	.	.	.
.	24G#/JJ	.	.	.	.	.
.	24e#/LL	.	8g#/	-dzie	na	.
.	24A#/	.	.	.	.	.
.	24G#/JJ)	.	.	.	.	.
8D#/L	2F##X/ 2B 2d#	.	(4.b/	sta-	łą-	.
(8DD#/	.	.	.	.	.	.
8qFF#/	.	.	.	.	.	.
8EE/	.	.	.	.	.	.
8DD#/J)	.	.	8a#/)	.	.	.
!!LO:LB:g=original	!	!	!	!	!	!
=9	=9	=9	=9	=9	=9	=9
*	*^	*	*	*	*	*
*xywh-8:215,3053,2536,568	*xywh-8:215,3053,2536,568	*xywh-8:215,3053,2536,568	*	*xywh-8:210,2789,2578,310	*	*	*
[2EE#X/	(24g#/LL	4.ryy	.	2g#/	-ła?	-ce.	.
.	24c##X/	.	.	.	.	.	.
.	24G#/JJ	.	.	.	.	.	.
.	24g#/LL	.	.	.	.	.	.
.	24c##/	.	.	.	.	.	.
.	24G#/JJ	.	.	.	.	.	.
.	24g#/LL	.	.	.	.	.	.
.	24c##/	.	.	.	.	.	.
.	24G#/JJ	.	.	.	.	.	.
.	24g#/LL	24ryy	.	.	.	.	.
.	24c##/	[>12c##\	.	.	.	.	.
.	[<24G#/JJ)	.	.	.	.	.	.
8EE#/L]	2G#/] 2c##] 2g#	2ryy	.	2r	.	.	.
(8EE#/	.	.	.	.	.	.	.
8qGG#/	.	.	.	.	.	.	.
8FF##X/	.	.	.	.	.	.	.
8EE#/J)	.	.	.	.	.	.	.
*	*v	*v	*	*	*	*	*
=10	=10	=10	=10	=10	=10	=10
!	!LO:TX:b:i:t=piu agitato	!	!	!	!	!
!	!	!	!LO:TX:a:i:t=piu agitato rilevando la voce	!	!	!
(4.FF#X/	(24B#X/LL	.	4.b#X\	Cha-	.	.
.	24d#/	.	.	.	.	.
.	24g#/	.	.	.	.	.
.	24b#X/	.	.	.	.	.
.	24g#/	.	.	.	.	.
.	24d#/JJ	.	.	.	.	.
.	24B#/LL	.	.	.	.	.
.	24d#/	.	.	.	.	.
.	24g#/	.	.	.	.	.
8F#\	24b#/	.	8g#/	-ta	.	.
.	24g#/	.	.	.	.	.
.	24d#/JJ	.	.	.	.	.
4.E\	24c#/LL	.	4.cc#\	w gru-	.	.
.	24e/	.	.	.	.	.
.	24g#/	.	.	.	.	.
.	24cc#/	.	.	.	.	.
.	24g#/	.	.	.	.	.
.	24e/JJ	.	.	.	.	.
.	24cc#/LL	.	.	.	.	.
.	24g#/	.	.	.	.	.
.	24cc#/JJ	.	.	.	.	.
8D#\)	24bn/LL	.	8bn\	-zy	.	.
.	24f#/	.	.	.	.	.
.	24b/JJ)	.	.	.	.	.
!!LO:LB:g=original	!	!	!	!	!	!
!!LO:PB:g=original	!	!	!	!	!	!
=11	=11	=11	=11	=11	=11	=11
*xywh-9:76,649,2633,480	*xywh-9:76,649,2633,480	*	*xywh-9:94,276,2660,398	*	*	*
(8C#/L	(24a#/LL	.	8a#/	o-	.	.
.	24e/	.	.	.	.	.
.	24a#/JJ	.	.	.	.	.
8BB/	24g#/LL	.	8g#/	-ba-	.	.
.	24d#/	.	.	.	.	.
.	24g#/JJ	.	.	.	.	.
8AA#/	24f##X/LL	.	(8f##X/L	-lo-	.	.
.	24c#/	.	.	.	.	.
.	24f##/JJ	.	.	.	.	.
8C#/J	24a#/LL	.	8a#/J)	.	.	.
.	24e/	.	.	.	.	.
.	24a#/JJ	.	.	.	.	.
8BB/L	24g#/LL	.	4g#/	-na	.	.
.	24d#/	.	.	.	.	.
.	24B/JJ	.	.	.	.	.
8AA#/	24g#/LL	.	.	.	.	.
.	24d#/	.	.	.	.	.
.	24B/JJ	.	.	.	.	.
8GG#/	24g#/LL	.	4r	.	.	.
.	24d#/	.	.	.	.	.
.	24B/JJ	.	.	.	.	.
8GG#/J)	24g#/LL	.	.	.	.	.
.	24d#/	.	.	.	.	.
.	24B/JJ)	.	.	.	.	.
=12	=12	=12	=12	=12	=12	=12
!	!	!	!	!	!	!LO:HP:a
!	!	!LO:HP:b	!	!	!	!
(4F#\	(24B#X/LL	<	4.b#X\	źró-	.	<
.	24d#/	.	.	.	.	.
.	24g#/	.	.	.	.	.
.	24b#X/	.	.	.	.	.
.	24g#/	.	.	.	.	.
.	24d#/JJ	.	.	.	.	.
8E\L	24B#/LL	.	.	.	.	.
.	24f#/	.	.	.	.	.
.	24g#/	.	.	.	.	.
8D#\J	24b#/	.	8g#/	-dła	.	.
.	24g#/	.	.	.	.	.
.	24f#/JJ	.	.	.	.	.
4.C#/	24e/LL	.	4.ee\	bić	.	.
.	24g#/	.	.	.	.	.
.	24cc#/	.	.	.	.	.
.	24ee/	.	.	.	.	.
.	24cc#/	.	.	.	.	.
.	24g#/JJ	.	.	.	.	.
.	24ee/LL	.	.	.	.	.
.	24g#/	.	.	.	.	.
.	24e/JJ	.	.	.	.	.
8BBn/)	24dd#/LL	.	8dd#\	prze-	.	.
.	24e/	.	.	.	.	.
.	24dd#/JJ)	.	.	.	.	.
!!LO:LB:g=original	!	!	!	!	!	!
=13	=13	=13	=13	=13	=13	=13
*xywh-9:85,1392,2645,498	*xywh-9:85,1392,2645,498	*	*xywh-9:154,1103,2555,311	*	*	*
(8AAn/L	(24cc#/LL	.	8cc#\	-sta-	.	.
.	24e/	.	.	.	.	.
.	24cc#/JJ	.	.	.	.	.
8GG#/	24b/LL	.	8b\	-ły	.	.
.	24e/	.	.	.	.	.
.	24b/JJ	.	.	.	.	.
8FF#/	24an/LL	.	8an/	ja-	.	.
.	24e/	.	.	.	.	.
.	24a/JJ	.	.	.	.	.
8AA/J	24cc#/LL	.	8cc#\	-błoń	.	.
.	24e/	.	.	.	.	.
.	24cc#/JJ	.	.	.	.	.
8GG#/L	24b/LL	.	8b\	w pruch-	.	.
.	24e/	.	.	.	.	.
.	24b/JJ	.	.	.	.	.
8FF#/	24a/LL	.	8a/	-no	.	.
.	24e/	.	.	.	.	.
.	24a/JJ	.	.	.	.	.
8EE/	24g#/LL	.	8g#/	za	.	.
.	24e/	.	.	.	.	.
.	24g#/JJ	.	.	.	.	.
8GG#/J)	24b/LL	.	8b\	mie-	.	.
.	24e/	.	.	.	.	.
.	24b/JJ)	.	.	.	.	.
=14	=14	=14	=14	=14	=14	=14
!	!	!LO:HP:b:t=dim.	!	!	!	!LO:HP:a:t=dim.
(8FF#/L	(24an/LL	>	(<8an/L	-nio-	.	>
.	24e/	.	.	.	.	.
.	24a/JJ	.	.	.	.	.
8EE/	24g#/LL	.	8g#/	.	.	.
.	24e/	.	.	.	.	.
.	24g#/JJ	.	.	.	.	.
8DD#/	24f#/LL	.	8f#/	.	.	.
.	24e/	.	.	.	.	.
.	24f#/JJ	.	.	.	.	.
8FF#/J	24a/LL	.	8a/J)	.	.	.
.	24d#/	.	.	.	.	.
.	24a/JJ	.	.	.	.	.
[2EE/)	24g#/LL	.	4g#/	-na	.	.
.	24e/	.	.	.	.	.
.	24B/JJ	.	.	.	.	.
.	24g#/LL	.	.	.	.	.
.	24e/	.	.	.	.	.
.	24B/JJ	.	.	.	.	.
!	!	!	!	!	!	!LO:DY:a
!	!	!LO:DY:b	!	!	!	!
.	24a#X/LL	pp	8a#X/	je-	.	pp
.	24g#/	.	.	.	.	.
.	24c#/JJ	.	.	.	.	.
.	24a#/LL	.	8a#/	-dne	.	.
.	24g#/	.	.	.	.	.
.	24c#/JJ)	.	.	.	.	.
!!LO:LB:g=original
=15	=15	=15	=15	=15	=15	=15
*xywh-9:64,2132,2672,519	*xywh-9:64,2132,2672,519	*	*xywh-9:157,1883,2561,274	*	*	*
2.EE/]	(24b/LL	.	2b\	łzy	.	.
.	24g#/	.	.	.	.	.
.	24c##X/JJ	.	.	.	.	.
.	24b/LL	.	.	.	.	.
.	24g#/	.	.	.	.	.
.	24c##/JJ	.	.	.	.	.
.	24b/LL	.	.	.	.	.
.	24g#/	.	.	.	.	.
.	24c##/JJ	.	.	.	.	.
.	24b/LL	.	.	.	.	.
.	24g#/	.	.	.	.	.
.	24c##/JJ	.	.	.	.	.
.	24b/LL	.	4r	.	.	.
.	24g#/	.	.	.	.	.
.	24c##/JJ	.	.	.	.	.
.	24b/LL	.	.	.	.	.
.	24g#/	.	.	.	.	.
.	24c##/JJ	.	.	.	.	.
4DD#/	24b#X/LL	.	8b#X\	je-	.	.
.	24g#/	.	.	.	.	.
.	24d#/JJ	.	.	.	.	.
.	24b#/LL	.	8b#\	-dne	.	.
.	24g#/	.	.	.	.	.
.	24d#/JJ)	.	.	.	.	.
=16	=16	=16	=16	=16	=16	=16
!	!	!LO:HP:b	!	!	!	!LO:HP:a
2CC#/	(>24cc#/LL	<	(4cc#\	łzy	.	<
.	24an/	.	.	.	.	.
.	24e/JJ	.	.	.	.	.
.	24cc#/LL	.	.	.	.	.
.	24a/	.	.	.	.	.
.	24e/JJ	.	.	.	.	.
.	24a/LL	.	8ee\)	.	.	[
.	24e/	.	.	.	.	.
.	24c#/JJ	.	.	.	.	.
!	!	!	!	!	!	!LO:HP:a
.	24e/LL	.	8ee\	zo-	.	>
.	24c#/	.	.	.	.	.
.	24An/JJ	[	.	.	.	.
!	!	!LO:HP:b	!	!	!	!
2DD#\	24A#X</LL	>	2f##X/	-sta-	.	]]
.	24F##X</	.	.	.	.	.
.	24C#</JJ	.	.	.	.	.
.	24A#</LL	.	.	.	.	.
.	24F##</	.	.	.	.	.
.	24C#</JJ	.	.	.	.	.
.	24A#</LL	.	.	.	.	.
.	24F##</	.	.	.	.	.
.	24C#</JJ	.	.	.	.	.
.	24A#</LL	.	.	.	.	.
.	24F##</	.	.	.	.	.
.	24C#</JJ)	]	.	.	.	.
!!LO:LB:g=original	!	!	!	!	!	!
=17	=17	=17	=17	=17	=17	=17
*^	*	*	*	*	*	*
*xywh-9:64,2917,2682,591	*xywh-9:64,2917,2682,591	*xywh-9:64,2917,2682,591	*	*xywh-9:154,2638,2597,286	*	*	*
!	!	!	!LO:DY:b	!	!	!	!
[2GG#\	2ryy	24G#</LL	pp	2g#/	-ły.	.	.
.	.	24D#</	.	.	.	.	.
.	.	24BB</JJ	.	.	.	.	.
.	.	24G#</LL	.	.	.	.	.
.	.	24D#</	.	.	.	.	.
.	.	24BB</JJ	.	.	.	.	.
.	.	24G#</LL	.	.	.	.	.
.	.	24D#</	.	.	.	.	.
.	.	24BB</JJ	.	.	.	.	.
.	.	24G#</LL	.	.	.	.	.
.	.	24D#</	.	.	.	.	.
.	.	24BB</JJ	.	.	.	.	.
!LO:N:vis=2	!	!	!	!	!	!	!
8GG#/L]	2GG#\	2c#/ 2d#	.	2r	.	.	.
(8D#/	.	.	.	.	.	.	.
8qF#/	.	.	.	.	.	.	.
8E/	.	.	.	.	.	.	.
8D#/J)	.	.	.	.	.	.	.
=18:|!	=18:|!	=18:|!	=18:|!	=18:|!	=18:|!	=18:|!	=18:|!
[2D#/	1GG#	(24d#/LL	.	1r	.	.	.
.	.	24B/	.	.	.	.	.
.	.	24G#/JJ	.	.	.	.	.
.	.	24d#/LL	.	.	.	.	.
.	.	24B/	.	.	.	.	.
.	.	24G#/JJ	.	.	.	.	.
.	.	24d#/LL	.	.	.	.	.
.	.	24B/	.	.	.	.	.
.	.	24G#/JJ	.	.	.	.	.
.	.	24d#/LL	.	.	.	.	.
.	.	24B/	.	.	.	.	.
.	.	24G#/JJ)	.	.	.	.	.
8D#/L]	.	2c#/ 2f##X	.	.	.	.	.
(<8D#/	.	.	.	.	.	.	.
8qF#/	.	.	.	.	.	.	.
8E/	.	.	.	.	.	.	.
8D#/J)	.	.	.	.	.	.	.
=19	=19	=19	=19	=19	=19	=19	=19
*	*	*^	*	*	*	*	*
*	*	*	*xywh-9:64,2917,2682,591	*	*	*	*	*
!	!	!LO:TX:i:b:t=perdendosi	!	!	!	!	!	!
[2D#/	1GG#	(24g#/LL	4.ryy	.	1r	.	.	.
.	.	24d#/	.	.	.	.	.	.
.	.	24B/JJ	.	.	.	.	.	.
.	.	24g#/LL	.	.	.	.	.	.
.	.	24d#/	.	.	.	.	.	.
.	.	24B/JJ	.	.	.	.	.	.
.	.	24g#/LL	.	.	.	.	.	.
.	.	24d#/	.	.	.	.	.	.
.	.	24B/JJ	.	.	.	.	.	.
.	.	24g#/LL	24ryy	.	.	.	.	.
.	.	24d#/	[>12d#\	.	.	.	.	.
.	.	[<24B/JJ)	.	.	.	.	.	.
8D#/L]	.	2B/_< 2d#_ [2g#	2ryy	.	.	.	.	.
(<8D#/	.	.	.	.	.	.	.	.
8qF#/	.	.	.	.	.	.	.	.
8E/	.	.	.	.	.	.	.	.
8D#/J)	.	.	.	.	.	.	.	.
*v	*v	*	*	*	*	*	*	*
*	*v	*v	*	*	*	*	*
=20	=20	=20	=20	=20	=20	=20
1GG# 1D#	1B] 1d#] 1g#]	.	1r	.	.	.
==	==	==	==	==	==	==
*-	*-	*-	*-	*-	*-	*-
!!!system-decoration: s1{(s2,s3)}
!!!RDF**kern: > = above
!!!RDF**kern: < = below
!!!ENC: Anastazja Marusiak
!!!END: 2022-03-14
!!!ENC: Jan Barakat
!!!END: 2022-03-21
!!!IIIF: https://polona.pl/iiif/item/NzQ3Nzg5MjA/manifest.json
!!!END-iiif: Emilia Ziętek
!!!END-iiif: 2022-08-23
!!!YEC: Copyright 2022 Narodowy Instytut Fryderyka Chopina (https://polishscores.org)
!!!YEM: Licence CC BY 4.0 (https://creativecommons.org/licenses/by/4.0)
